!!!OTL: Women sheli changxinge
!!!ARE: Asia, China,ÿGuangdong Wengyuan
!! II, 367, 1)
!!!SCT: C1893
!!!YEM: Copyright 1995, estate of Helmut Schaffrath.
**kern
*ICvox
*Ivox
*M2/4
*k[f#c#]
*D:
{8b
8b
8b
8dd
=1
4ee
4ee
=2
8b
8ee
8dd
8b
=3
4a
4a}
=4
{8b
8dd
8ee
8ee
=5
1ccxxx#
=6
2ccx#
=7
4ccx#}
{4ee
=8
8b
8ee
8dd
8a
=9
4a
4a}
==
!!!AGN: Shange
!!!AMT: simple duple
!!!AIN: vox
!!!EED: Helmut Schaffrath
!!!EEV: 1.0
*-
